images/portal/5800.svg

<?xml version="1.0" standalone="no"?><!DOCTYPE svg PUBLIC "-//W3C//DTD SVG 1.1//EN" "http://www.w3.org/Graphics/SVG/1.1/DTD/svg11.dtd"><svg xmlns:xlink="http://www.w3.org/1999/xlink" version="1.1" class="highcharts-root" style="font-family:arial;font-size:9pt;" xmlns="http://www.w3.org/2000/svg" width="485" height="415"><desc>Created with Highstock 5.0.14</desc><defs><clipPath id="highcharts-reptjgs-7"><rect x="0" y="0" width="426" height="254" fill="none"></rect></clipPath><clipPath id="highcharts-reptjgs-8"><rect x="0" y="0" width="426" height="254" fill="none"></rect></clipPath></defs><rect fill="#fbfbfb" class="highcharts-background" x="0" y="0" width="485" height="415" rx="0" ry="0"></rect><rect fill="none" class="highcharts-plot-background" x="49" y="90" width="426" height="254"></rect><g class="highcharts-label" style="cursor:pointer;" transform="translate(10,451)"><text x="0" y="0"><tspan>&gt; Indikator-Details</tspan></text></g><g class="highcharts-pane-group"></g><g class="highcharts-grid highcharts-xaxis-grid "><path fill="none" class="highcharts-grid-line" d="M 84.5 90 L 84.5 344" opacity="1"></path><path fill="none" class="highcharts-grid-line" d="M 119.5 90 L 119.5 344" opacity="1"></path><path fill="none" class="highcharts-grid-line" d="M 155.5 90 L 155.5 344" opacity="1"></path><path fill="none" class="highcharts-grid-line" d="M 190.5 90 L 190.5 344" opacity="1"></path><path fill="none" class="highcharts-grid-line" d="M 226.5 90 L 226.5 344" opacity="1"></path><path fill="none" class="highcharts-grid-line" d="M 261.5 90 L 261.5 344" opacity="1"></path><path fill="none" class="highcharts-grid-line" d="M 297.5 90 L 297.5 344" opacity="1"></path><path fill="none" class="highcharts-grid-line" d="M 332.5 90 L 332.5 344" opacity="1"></path><path fill="none" class="highcharts-grid-line" d="M 368.5 90 L 368.5 344" opacity="1"></path><path fill="none" class="highcharts-grid-line" d="M 403.5 90 L 403.5 344" opacity="1"></path><path fill="none" class="highcharts-grid-line" d="M 439.5 90 L 439.5 344" opacity="1"></path><path fill="none" class="highcharts-grid-line" d="M 474.5 90 L 474.5 344" opacity="1"></path><path fill="none" class="highcharts-grid-line" d="M 48.5 90 L 48.5 344" opacity="1"></path></g><g class="highcharts-grid highcharts-yaxis-grid "><path fill="none" stroke="#e6e6e6" stroke-width="1" class="highcharts-grid-line" d="M 49 344.5 L 475 344.5" opacity="1"></path><path fill="none" stroke="#e6e6e6" stroke-width="1" class="highcharts-grid-line" d="M 49 281.5 L 475 281.5" opacity="1"></path><path fill="none" stroke="#e6e6e6" stroke-width="1" class="highcharts-grid-line" d="M 49 217.5 L 475 217.5" opacity="1"></path><path fill="none" stroke="#e6e6e6" stroke-width="1" class="highcharts-grid-line" d="M 49 154.5 L 475 154.5" opacity="1"></path><path fill="none" stroke="#e6e6e6" stroke-width="1" class="highcharts-grid-line" d="M 49 90.5 L 475 90.5" opacity="1"></path></g><g class="highcharts-grid highcharts-yaxis-grid "></g><rect fill="none" class="highcharts-plot-border" x="49" y="90" width="426" height="254"></rect><g class="highcharts-axis highcharts-xaxis "><path fill="none" class="highcharts-axis-line" stroke="#ccd6eb" stroke-width="1" d="M 49 344.5 L 475 344.5"></path></g><g class="highcharts-axis highcharts-yaxis "><path fill="none" class="highcharts-axis-line" d="M 49 90 L 49 344"></path></g><g class="highcharts-axis highcharts-yaxis "><path fill="none" class="highcharts-axis-line" d="M 475 90 L 475 344"></path></g><g class="highcharts-series-group"><g class="highcharts-series highcharts-series-0 highcharts-column-series highcharts-color-undefined " transform="translate(49,90) scale(1 1)" clip-path="url(#highcharts-reptjgs-8)"><rect x="9" y="111" width="18" height="68" fill="#73B97C" class="highcharts-point"></rect><rect x="45" y="105" width="18" height="64" fill="#73B97C" class="highcharts-point"></rect><rect x="80" y="101" width="18" height="66" fill="#73B97C" class="highcharts-point"></rect><rect x="116" y="90" width="18" height="72" fill="#73B97C" class="highcharts-point"></rect><rect x="151" y="86" width="18" height="69" fill="#73B97C" class="highcharts-point"></rect><rect x="187" y="83" width="18" height="56" fill="#73B97C" class="highcharts-point"></rect><rect x="222" y="82" width="18" height="51" fill="#73B97C" class="highcharts-point"></rect><rect x="258" y="75" width="18" height="55" fill="#73B97C" class="highcharts-point"></rect><rect x="293" y="73" width="18" height="54" fill="#73B97C" class="highcharts-point"></rect><rect x="329" y="89" width="18" height="38" fill="#73B97C" class="highcharts-point"></rect><rect x="364" y="87" width="18" height="47" fill="#73B97C" class="highcharts-point"></rect><rect x="400" y="98" width="18" height="46" fill="#73B97C" class="highcharts-point"></rect></g><g class="highcharts-markers highcharts-series-0 highcharts-column-series highcharts-color-undefined " transform="translate(49,90) scale(1 1)" clip-path="none"></g><g class="highcharts-series highcharts-series-1 highcharts-column-series highcharts-color-undefined " transform="translate(49,90) scale(1 1)" clip-path="url(#highcharts-reptjgs-8)"><rect x="9" y="179" width="18" height="23" fill="#68AB2B" class="highcharts-point"></rect><rect x="45" y="169" width="18" height="25" fill="#68AB2B" class="highcharts-point"></rect><rect x="80" y="167" width="18" height="25" fill="#68AB2B" class="highcharts-point"></rect><rect x="116" y="162" width="18" height="37" fill="#68AB2B" class="highcharts-point"></rect><rect x="151" y="155" width="18" height="31" fill="#68AB2B" class="highcharts-point"></rect><rect x="187" y="139" width="18" height="21" fill="#68AB2B" class="highcharts-point"></rect><rect x="222" y="133" width="18" height="23" fill="#68AB2B" class="highcharts-point"></rect><rect x="258" y="130" width="18" height="26" fill="#68AB2B" class="highcharts-point"></rect><rect x="293" y="127" width="18" height="23" fill="#68AB2B" class="highcharts-point"></rect><rect x="329" y="127" width="18" height="24" fill="#68AB2B" class="highcharts-point"></rect><rect x="364" y="134" width="18" height="23" fill="#68AB2B" class="highcharts-point"></rect><rect x="400" y="144" width="18" height="22" fill="#68AB2B" class="highcharts-point"></rect></g><g class="highcharts-markers highcharts-series-1 highcharts-column-series highcharts-color-undefined " transform="translate(49,90) scale(1 1)" clip-path="none"></g><g class="highcharts-series highcharts-series-2 highcharts-column-series highcharts-color-undefined " transform="translate(49,90) scale(1 1)" clip-path="url(#highcharts-reptjgs-8)"><rect x="9" y="202" width="18" height="53" fill="#007A2F" class="highcharts-point"></rect><rect x="45" y="194" width="18" height="61" fill="#007A2F" class="highcharts-point"></rect><rect x="80" y="192" width="18" height="63" fill="#007A2F" class="highcharts-point"></rect><rect x="116" y="199" width="18" height="56" fill="#007A2F" class="highcharts-point"></rect><rect x="151" y="186" width="18" height="69" fill="#007A2F" class="highcharts-point"></rect><rect x="187" y="160" width="18" height="95" fill="#007A2F" class="highcharts-point"></rect><rect x="222" y="156" width="18" height="99" fill="#007A2F" class="highcharts-point"></rect><rect x="258" y="156" width="18" height="99" fill="#007A2F" class="highcharts-point"></rect><rect x="293" y="150" width="18" height="105" fill="#007A2F" class="highcharts-point"></rect><rect x="329" y="151" width="18" height="104" fill="#007A2F" class="highcharts-point"></rect><rect x="364" y="157" width="18" height="98" fill="#007A2F" class="highcharts-point"></rect><rect x="400" y="166" width="18" height="89" fill="#007A2F" class="highcharts-point"></rect></g><g class="highcharts-markers highcharts-series-2 highcharts-column-series highcharts-color-undefined " transform="translate(49,90) scale(1 1)" clip-path="none"></g><g class="highcharts-series highcharts-series-3 highcharts-column-series highcharts-color-undefined " transform="translate(49,90) scale(1 1)" clip-path="url(#highcharts-reptjgs-8)"><rect x="9" y="255" width="18" height="0" fill="#0A3B19" class="highcharts-point"></rect><rect x="45" y="255" width="18" height="0" fill="#0A3B19" class="highcharts-point"></rect><rect x="80" y="255" width="18" height="0" fill="#0A3B19" class="highcharts-point"></rect><rect x="116" y="255" width="18" height="0" fill="#0A3B19" class="highcharts-point"></rect><rect x="151" y="255" width="18" height="0" fill="#0A3B19" class="highcharts-point"></rect><rect x="187" y="255" width="18" height="0" fill="#0A3B19" class="highcharts-point"></rect><rect x="222" y="255" width="18" height="0" fill="#0A3B19" class="highcharts-point"></rect><rect x="258" y="255" width="18" height="0" fill="#0A3B19" class="highcharts-point"></rect><rect x="293" y="255" width="18" height="0" fill="#0A3B19" class="highcharts-point"></rect><rect x="329" y="255" width="18" height="0" fill="#0A3B19" class="highcharts-point"></rect><rect x="364" y="255" width="18" height="0" fill="#0A3B19" class="highcharts-point"></rect><rect x="400" y="255" width="18" height="0" fill="#0A3B19" class="highcharts-point"></rect></g><g class="highcharts-markers highcharts-series-3 highcharts-column-series highcharts-color-undefined " transform="translate(49,90) scale(1 1)" clip-path="none"></g></g><text x="10" text-anchor="start" class="highcharts-title" style="color:#000000;font-size:1.1em;font-weight:bold;fill:#000000;" y="20"><tspan>Holzernte nach Sortimenten</tspan></text><text x="10" text-anchor="start" class="highcharts-subtitle" style="color:#000000;font-size:0.9em;fill:#000000;" y="38"><tspan>Kubikmeter</tspan></text><g class="highcharts-legend" transform="translate(10,40)"><rect fill="none" class="highcharts-legend-box" rx="0" ry="0" x="0" y="0" width="394" height="38" visibility="visible"></rect><g><g><g class="highcharts-legend-item highcharts-column-series highcharts-color-undefined highcharts-series-0" transform="translate(12,7)"><text x="21" style="color:#333333;font-size:1em;font-weight:normal;cursor:pointer;fill:#333333;" text-anchor="start" y="15"><tspan>Stammholz</tspan></text><rect x="2" y="4" width="12" height="12" fill="#73B97C" class="highcharts-point"></rect></g><g class="highcharts-legend-item highcharts-column-series highcharts-color-undefined highcharts-series-1" transform="translate(112.96875,7)"><text x="21" y="15" style="color:#333333;font-size:1em;font-weight:normal;cursor:pointer;fill:#333333;" text-anchor="start"><tspan>Industrieholz</tspan></text><rect x="2" y="4" width="12" height="12" fill="#68AB2B" class="highcharts-point"></rect></g><g class="highcharts-legend-item highcharts-column-series highcharts-color-undefined highcharts-series-2" transform="translate(221.953125,7)"><text x="21" y="15" style="color:#333333;font-size:1em;font-weight:normal;cursor:pointer;fill:#333333;" text-anchor="start"><tspan>Energieholz</tspan></text><rect x="2" y="4" width="12" height="12" fill="#007A2F" class="highcharts-point"></rect></g><g class="highcharts-legend-item highcharts-column-series highcharts-color-undefined highcharts-series-3" transform="translate(326.28125,7)"><text x="21" y="15" style="color:#333333;font-size:1em;font-weight:normal;cursor:pointer;fill:#333333;" text-anchor="start"><tspan>Übrige</tspan></text><rect x="2" y="4" width="12" height="12" fill="#0A3B19" class="highcharts-point"></rect></g></g></g></g><g class="highcharts-axis-labels highcharts-xaxis-labels "><text x="66.75" style="color:#000000;cursor:default;font-size:0.9em;fill:#000000;" text-anchor="middle" transform="translate(0,0)" y="363" opacity="1">2004</text><text x="102.25" style="color:#000000;cursor:default;font-size:0.9em;fill:#000000;" text-anchor="middle" transform="translate(0,0)" y="363" opacity="1">2005</text><text x="137.75" style="color:#000000;cursor:default;font-size:0.9em;fill:#000000;" text-anchor="middle" transform="translate(0,0)" y="363" opacity="1">2006</text><text x="173.25" style="color:#000000;cursor:default;font-size:0.9em;fill:#000000;" text-anchor="middle" transform="translate(0,0)" y="363" opacity="1">2007</text><text x="208.75" style="color:#000000;cursor:default;font-size:0.9em;fill:#000000;" text-anchor="middle" transform="translate(0,0)" y="363" opacity="1">2008</text><text x="244.25" style="color:#000000;cursor:default;font-size:0.9em;fill:#000000;" text-anchor="middle" transform="translate(0,0)" y="363" opacity="1">2009</text><text x="279.75" style="color:#000000;cursor:default;font-size:0.9em;fill:#000000;" text-anchor="middle" transform="translate(0,0)" y="363" opacity="1">2010</text><text x="315.25" style="color:#000000;cursor:default;font-size:0.9em;fill:#000000;" text-anchor="middle" transform="translate(0,0)" y="363" opacity="1">2011</text><text x="350.75" style="color:#000000;cursor:default;font-size:0.9em;fill:#000000;" text-anchor="middle" transform="translate(0,0)" y="363" opacity="1">2012</text><text x="386.25" style="color:#000000;cursor:default;font-size:0.9em;fill:#000000;" text-anchor="middle" transform="translate(0,0)" y="363" opacity="1">2013</text><text x="421.75" style="color:#000000;cursor:default;font-size:0.9em;fill:#000000;" text-anchor="middle" transform="translate(0,0)" y="363" opacity="1">2014</text><text x="457.25" style="color:#000000;cursor:default;font-size:0.9em;fill:#000000;" text-anchor="middle" transform="translate(0,0)" y="363" opacity="1">2015</text></g><g class="highcharts-axis-labels highcharts-yaxis-labels "><text x="34" style="color:#000000;cursor:default;font-size:0.9em;fill:#000000;" text-anchor="end" transform="translate(0,0)" y="349" opacity="1"><tspan>0</tspan></text><text x="34" style="color:#000000;cursor:default;font-size:0.9em;fill:#000000;" text-anchor="end" transform="translate(0,0)" y="285" opacity="1"><tspan>50k</tspan></text><text x="34" style="color:#000000;cursor:default;font-size:0.9em;fill:#000000;" text-anchor="end" transform="translate(0,0)" y="222" opacity="1"><tspan>100k</tspan></text><text x="34" style="color:#000000;cursor:default;font-size:0.9em;fill:#000000;" text-anchor="end" transform="translate(0,0)" y="158" opacity="1"><tspan>150k</tspan></text><text x="34" style="color:#000000;cursor:default;font-size:0.9em;fill:#000000;" text-anchor="end" transform="translate(0,0)" y="94" opacity="1"><tspan>200k</tspan></text></g><g class="highcharts-axis-labels highcharts-yaxis-labels "></g><text x="10" class="highcharts-credits" text-anchor="start" style="cursor:default;color:#000000;font-size:0.8em;fill:#000000;" y="400"><tspan>Quelle: Amt für Wald beider Basel</tspan></text></svg>

<svg class="highcharts-root" xmlns="http://www.w3.org/2000/svg" viewBox="0 0 485 415" font-family="arial" font-size="12">
    <defs>
        <clipPath id="a">
            <path fill="none" d="M0 0h426v254H0z"/>
        </clipPath>
    </defs>
    <rect fill="#fbfbfb" class="highcharts-background" width="485" height="415" rx="0" ry="0"/>
    <path fill="none" class="highcharts-plot-background" d="M49 90h426v254H49z"/>
    <text transform="translate(10 451)" class="highcharts-label" cursor="pointer">
        <tspan>&gt; Indikator-Details</tspan>
    </text>
    <g class="highcharts-grid highcharts-xaxis-grid">
        <path fill="none" class="highcharts-grid-line" d="M84.5 90v254m35-254v254m36-254v254m35-254v254m36-254v254m35-254v254m36-254v254m35-254v254m36-254v254m35-254v254m36-254v254m35-254v254M48.5 90v254"/>
    </g>
    <g class="highcharts-grid highcharts-yaxis-grid">
        <path fill="none" stroke="#e6e6e6" class="highcharts-grid-line" d="M49 344.5h426m-426-63h426m-426-64h426m-426-63h426m-426-64h426"/>
    </g>
    <path fill="none" class="highcharts-plot-border" d="M49 90h426v254H49z"/>
    <g class="highcharts-axis highcharts-xaxis">
        <path fill="none" class="highcharts-axis-line" stroke="#ccd6eb" d="M49 344.5h426"/>
    </g>
    <g class="highcharts-axis highcharts-yaxis">
        <path fill="none" class="highcharts-axis-line" d="M49 90v254"/>
    </g>
    <g class="highcharts-axis highcharts-yaxis">
        <path fill="none" class="highcharts-axis-line" d="M475 90v254"/>
    </g>
    <g class="highcharts-series-group">
        <g class="highcharts-series highcharts-series-0 highcharts-column-series highcharts-color-undefined" transform="translate(49 90)" clip-path="url(#a)">
            <path fill="#73B97C" class="highcharts-point" d="M9 111h18v68H9zm36-6h18v64H45zm35-4h18v66H80zm36-11h18v72h-18zm35-4h18v69h-18zm36-3h18v56h-18zm35-1h18v51h-18zm36-7h18v55h-18zm35-2h18v54h-18zm36 16h18v38h-18zm35-2h18v47h-18zm36 11h18v46h-18z"/>
        </g>
        <g class="highcharts-series highcharts-series-1 highcharts-column-series highcharts-color-undefined" transform="translate(49 90)" clip-path="url(#a)">
            <path fill="#68AB2B" class="highcharts-point" d="M9 179h18v23H9zm36-10h18v25H45zm35-2h18v25H80zm36-5h18v37h-18zm35-7h18v31h-18zm36-16h18v21h-18zm35-6h18v23h-18zm36-3h18v26h-18zm35-3h18v23h-18zm36 0h18v24h-18zm35 7h18v23h-18zm36 10h18v22h-18z"/>
        </g>
        <g class="highcharts-series highcharts-series-2 highcharts-column-series highcharts-color-undefined" transform="translate(49 90)" clip-path="url(#a)">
            <path fill="#007A2F" class="highcharts-point" d="M9 202h18v53H9zm36-8h18v61H45zm35-2h18v63H80zm36 7h18v56h-18zm35-13h18v69h-18zm36-26h18v95h-18zm35-4h18v99h-18zm36 0h18v99h-18zm35-6h18v105h-18zm36 1h18v104h-18zm35 6h18v98h-18zm36 9h18v89h-18z"/>
        </g>
    </g>
    <text x="10" class="highcharts-title" y="20" color="#000" font-size="1.1em" font-weight="700">
        <tspan>Holzernte nach Sortimenten</tspan>
    </text>
    <text x="10" class="highcharts-subtitle" y="38" color="#000" font-size=".9em">
        <tspan>Kubikmeter</tspan>
    </text>
    <g class="highcharts-legend" transform="translate(10 40)">
        <rect fill="none" class="highcharts-legend-box" rx="0" ry="0" width="394" height="38"/>
        <g class="highcharts-legend-item highcharts-column-series highcharts-color-undefined highcharts-series-0">
            <text x="21" y="15" color="#333" font-size="1em" font-weight="400" cursor="pointer" fill="#333" transform="translate(12 7)">
                <tspan>Stammholz</tspan>
            </text>
            <path fill="#73B97C" class="highcharts-point" d="M14 11h12v12H14z"/>
        </g>
        <g class="highcharts-legend-item highcharts-column-series highcharts-color-undefined highcharts-series-1">
            <text x="21" y="15" color="#333" font-size="1em" font-weight="400" cursor="pointer" fill="#333" transform="translate(112.969 7)">
                <tspan>Industrieholz</tspan>
            </text>
            <path fill="#68AB2B" class="highcharts-point" d="M114.969 11h12v12h-12z"/>
        </g>
        <g class="highcharts-legend-item highcharts-column-series highcharts-color-undefined highcharts-series-2">
            <text x="21" y="15" color="#333" font-size="1em" font-weight="400" cursor="pointer" fill="#333" transform="translate(221.953 7)">
                <tspan>Energieholz</tspan>
            </text>
            <path fill="#007A2F" class="highcharts-point" d="M223.953 11h12v12h-12z"/>
        </g>
        <g class="highcharts-legend-item highcharts-column-series highcharts-color-undefined highcharts-series-3">
            <text x="21" y="15" color="#333" font-size="1em" font-weight="400" cursor="pointer" fill="#333" transform="translate(326.281 7)">
                <tspan>Übrige</tspan>
            </text>
            <path fill="#0A3B19" class="highcharts-point" d="M328.281 11h12v12h-12z"/>
        </g>
    </g>
    <g class="highcharts-axis-labels highcharts-xaxis-labels" text-anchor="middle" color="#000" cursor="default" font-size=".9em">
        <text x="66.75" y="363">
            2004
        </text>
        <text x="102.25" y="363">
            2005
        </text>
        <text x="137.75" y="363">
            2006
        </text>
        <text x="173.25" y="363">
            2007
        </text>
        <text x="208.75" y="363">
            2008
        </text>
        <text x="244.25" y="363">
            2009
        </text>
        <text x="279.75" y="363">
            2010
        </text>
        <text x="315.25" y="363">
            2011
        </text>
        <text x="350.75" y="363">
            2012
        </text>
        <text x="386.25" y="363">
            2013
        </text>
        <text x="421.75" y="363">
            2014
        </text>
        <text x="457.25" y="363">
            2015
        </text>
    </g>
    <g class="highcharts-axis-labels highcharts-yaxis-labels" text-anchor="end" color="#000" cursor="default" font-size=".9em">
        <text x="34" y="349">
            <tspan>0</tspan>
        </text>
        <text x="34" y="285">
            <tspan>50k</tspan>
        </text>
        <text x="34" y="222">
            <tspan>100k</tspan>
        </text>
        <text x="34" y="158">
            <tspan>150k</tspan>
        </text>
        <text x="34" y="94">
            <tspan>200k</tspan>
        </text>
    </g>
    <text x="10" class="highcharts-credits" y="400" cursor="default" color="#000" font-size=".8em">
        <tspan>Quelle: Amt für Wald beider Basel</tspan>
    </text>
</svg>
